icons/linear-new-office-doc-document-people.svg

<svg xmlns="http://www.w3.org/2000/svg" width="32px" height="32px" viewBox="0 0 32 32" version="1.1">
    <title>linear-new-office-doc-document-people</title>
    <g id="linear-new-office-doc-document-people" stroke-width="1" fill-rule="evenodd">
        <path d="M27,25 C28.6568542,25 30,26.3431458 30,28 L30,30 C30,30.5522847 29.5522847,31 29,31 C28.4477153,31 28,30.5522847 28,30 L28,28 C28,27.4477153 27.5522847,27 27,27 L21,27 C20.4477153,27 20,27.4477153 20,28 L20,30 C20,30.5522847 19.5522847,31 19,31 C18.4477153,31 18,30.5522847 18,30 L18,28 C18,26.3431458 19.3431458,25 21,25 L27,25 Z M27,2 C27.5522847,2 28,2.44771525 28,3 L28,14 C28,14.5522847 27.5522847,15 27,15 C26.4477153,15 26,14.5522847 26,14 L26,4 L6,4 L6,28 L15,28 C15.5128358,28 15.9355072,28.3860402 15.9932723,28.8833789 L16,29 C16,29.5522847 15.5522847,30 15,30 L5,30 C4.44771525,30 4,29.5522847 4,29 L4,3 C4,2.44771525 4.44771525,2 5,2 L27,2 Z M24,16 C26.209139,16 28,17.790861 28,20 C28,22.209139 26.209139,24 24,24 C21.790861,24 20,22.209139 20,20 C20,17.790861 21.790861,16 24,16 Z M24,18 C22.8954305,18 22,18.8954305 22,20 C22,21.1045695 22.8954305,22 24,22 C25.1045695,22 26,21.1045695 26,20 C26,18.8954305 25.1045695,18 24,18 Z M15,14 C15.5522847,14 16,14.4477153 16,15 C16,15.5522847 15.5522847,16 15,16 L11,16 C10.4477153,16 10,15.5522847 10,15 C10,14.4477153 10.4477153,14 11,14 L15,14 Z M21,8 C21.5522847,8 22,8.44771525 22,9 C22,9.55228475 21.5522847,10 21,10 L11,10 C10.4477153,10 10,9.55228475 10,9 C10,8.44771525 10.4477153,8 11,8 L21,8 Z" id="&#24418;&#29366;" fill-rule="nonzero" />
    </g>
</svg>

<svg xmlns="http://www.w3.org/2000/svg" viewBox="0 0 32 32"><path fill="currentColor" d="M27 25a3 3 0 0 1 3 3v2a1 1 0 0 1-2 0v-2a1 1 0 0 0-1-1h-6a1 1 0 0 0-1 1v2a1 1 0 0 1-2 0v-2a3 3 0 0 1 3-3zm0-23a1 1 0 0 1 1 1v11a1 1 0 0 1-2 0V4H6v24h9a1 1 0 0 1 .993.883L16 29a1 1 0 0 1-1 1H5a1 1 0 0 1-1-1V3a1 1 0 0 1 1-1zm-3 14a4 4 0 1 1 0 8 4 4 0 0 1 0-8m0 2a2 2 0 1 0 0 4 2 2 0 0 0 0-4m-9-4a1 1 0 0 1 0 2h-4a1 1 0 0 1 0-2zm6-6a1 1 0 0 1 0 2H11a1 1 0 0 1 0-2z"/></svg>
